public/images/banners/element-usdc.svg

<svg width="450" height="172" viewBox="0 0 450 172" fill="none" xmlns="http://www.w3.org/2000/svg">
<path d="M0 0H450V172H0V0Z" fill="url(#paint0_linear)"/>
<g filter="url(#filter0_dd)">
<path d="M225 136C252.709 136 275 113.709 275 86C275 58.2915 252.709 36 225 36C197.292 36 175 58.2915 175 86C175 113.709 197.292 136 225 136Z" fill="#2775CA"/>
<path d="M238.75 93.9163C238.75 86.6248 234.375 84.1248 225.625 83.0833C219.375 82.2498 218.125 80.5833 218.125 77.6663C218.125 74.7493 220.209 72.8748 224.375 72.8748C228.125 72.8748 230.209 74.1248 231.25 77.2498C231.459 77.8748 232.084 78.2913 232.709 78.2913H236.042C236.875 78.2913 237.5 77.6663 237.5 76.8333V76.6248C236.667 72.0413 232.917 68.4998 228.125 68.0833V63.0833C228.125 62.2498 227.5 61.6248 226.459 61.4163H223.334C222.5 61.4163 221.875 62.0413 221.667 63.0833V67.8748C215.417 68.7083 211.459 72.8748 211.459 78.0833C211.459 84.9583 215.625 87.6663 224.375 88.7083C230.209 89.7498 232.084 90.9998 232.084 94.3333C232.084 97.6668 229.167 99.9583 225.209 99.9583C219.792 99.9583 217.917 97.6663 217.292 94.5413C217.084 93.7083 216.459 93.2913 215.834 93.2913H212.292C211.459 93.2913 210.834 93.9163 210.834 94.7498V94.9583C211.667 100.166 215 103.916 221.875 104.958V109.958C221.875 110.791 222.5 111.416 223.542 111.625H226.667C227.5 111.625 228.125 111 228.334 109.958V104.958C234.584 103.916 238.75 99.5413 238.75 93.9163V93.9163Z" fill="white"/>
<path d="M214.375 115.792C198.125 109.959 189.792 91.8337 195.834 75.7917C198.959 67.0417 205.834 60.3752 214.375 57.2502C215.209 56.8337 215.625 56.2087 215.625 55.1667V52.2502C215.625 51.4167 215.209 50.7917 214.375 50.5837C214.167 50.5837 213.75 50.5837 213.542 50.7917C193.75 57.0417 182.917 78.0837 189.167 97.8752C192.917 109.542 201.875 118.5 213.542 122.25C214.375 122.667 215.209 122.25 215.417 121.417C215.625 121.209 215.625 121 215.625 120.584V117.667C215.625 117.042 215 116.209 214.375 115.792ZM236.459 50.7917C235.625 50.3752 234.792 50.7917 234.584 51.6252C234.375 51.8337 234.375 52.0417 234.375 52.4587V55.3752C234.375 56.2087 235 57.0417 235.625 57.4587C251.875 63.2917 260.209 81.4167 254.167 97.4587C251.042 106.209 244.167 112.875 235.625 116C234.792 116.417 234.375 117.042 234.375 118.084V121C234.375 121.834 234.792 122.459 235.625 122.667C235.834 122.667 236.25 122.667 236.459 122.459C256.25 116.209 267.084 95.1667 260.834 75.3752C257.084 63.5002 247.917 54.5417 236.459 50.7917V50.7917Z" fill="white"/>
</g>
<defs>
<filter id="filter0_dd" x="170" y="35" width="110" height="110" filterUnits="userSpaceOnUse" color-interpolation-filters="sRGB">
<feFlood flood-opacity="0" result="BackgroundImageFix"/>
<feColorMatrix in="SourceAlpha" type="matrix" values="0 0 0 0 0 0 0 0 0 0 0 0 0 0 0 0 0 0 127 0" result="hardAlpha"/>
<feMorphology radius="1" operator="erode" in="SourceAlpha" result="effect1_dropShadow"/>
<feOffset dy="2"/>
<feGaussianBlur stdDeviation="2"/>
<feColorMatrix type="matrix" values="0 0 0 0 0 0 0 0 0 0 0 0 0 0 0 0 0 0 0.05 0"/>
<feBlend mode="normal" in2="BackgroundImageFix" result="effect1_dropShadow"/>
<feColorMatrix in="SourceAlpha" type="matrix" values="0 0 0 0 0 0 0 0 0 0 0 0 0 0 0 0 0 0 127 0" result="hardAlpha"/>
<feMorphology radius="1" operator="erode" in="SourceAlpha" result="effect2_dropShadow"/>
<feOffset dy="4"/>
<feGaussianBlur stdDeviation="3"/>
<feColorMatrix type="matrix" values="0 0 0 0 0 0 0 0 0 0 0 0 0 0 0 0 0 0 0.05 0"/>
<feBlend mode="normal" in2="effect1_dropShadow" result="effect2_dropShadow"/>
<feBlend mode="normal" in="SourceGraphic" in2="effect2_dropShadow" result="shape"/>
</filter>
<linearGradient id="paint0_linear" x1="450" y1="1.10338e-06" x2="175.079" y2="325.757" gradientUnits="userSpaceOnUse">
<stop stop-color="#2775CA" stop-opacity="0.8"/>
<stop offset="1" stop-color="#2775CA"/>
</linearGradient>
</defs>
</svg>

<svg width="450" height="172" fill="none" xmlns="http://www.w3.org/2000/svg"><path d="M0 0h450v172H0V0Z" fill="url(#a)"/><g filter="url(#b)"><path d="M225 136c27.709 0 50-22.291 50-50s-22.291-50-50-50c-27.708 0-50 22.291-50 50s22.292 50 50 50Z" fill="#2775CA"/><path d="M238.75 93.916c0-7.291-4.375-9.791-13.125-10.833-6.25-.833-7.5-2.5-7.5-5.417s2.084-4.791 6.25-4.791c3.75 0 5.834 1.25 6.875 4.375.209.625.834 1.041 1.459 1.041h3.333c.833 0 1.458-.625 1.458-1.458v-.208c-.833-4.584-4.583-8.125-9.375-8.542v-5c0-.833-.625-1.458-1.666-1.667h-3.125c-.834 0-1.459.625-1.667 1.667v4.792c-6.25.833-10.208 5-10.208 10.208 0 6.875 4.166 9.583 12.916 10.625 5.834 1.042 7.709 2.292 7.709 5.625 0 3.334-2.917 5.625-6.875 5.625-5.417 0-7.292-2.292-7.917-5.417-.208-.833-.833-1.25-1.458-1.25h-3.542c-.833 0-1.458.625-1.458 1.459v.208c.833 5.208 4.166 8.958 11.041 10v5c0 .833.625 1.458 1.667 1.667h3.125c.833 0 1.458-.625 1.667-1.667v-5c6.25-1.042 10.416-5.417 10.416-11.042Z" fill="#fff"/><path d="M214.375 115.792c-16.25-5.833-24.583-23.958-18.541-40 3.125-8.75 10-15.417 18.541-18.542.834-.416 1.25-1.041 1.25-2.083V52.25c0-.833-.416-1.458-1.25-1.666-.208 0-.625 0-.833.208-19.792 6.25-30.625 27.292-24.375 47.083 3.75 11.667 12.708 20.625 24.375 24.375.833.417 1.667 0 1.875-.833.208-.208.208-.417.208-.833v-2.917c0-.625-.625-1.458-1.25-1.875Zm22.084-65c-.834-.417-1.667 0-1.875.833-.209.209-.209.417-.209.834v2.916c0 .834.625 1.667 1.25 2.084 16.25 5.833 24.584 23.958 18.542 40-3.125 8.75-10 15.416-18.542 18.541-.833.417-1.25 1.042-1.25 2.084V121c0 .834.417 1.459 1.25 1.667.209 0 .625 0 .834-.208 19.791-6.25 30.625-27.292 24.375-47.084-3.75-11.875-12.917-20.833-24.375-24.583Z" fill="#fff"/></g><defs><linearGradient id="a" x1="450" y1="0" x2="175.079" y2="325.757" gradientUnits="userSpaceOnUse"><stop stop-color="#2775CA" stop-opacity=".8"/><stop offset="1" stop-color="#2775CA"/></linearGradient><filter id="b" x="170" y="35" width="110" height="110" filterUnits="userSpaceOnUse" color-interpolation-filters="sRGB"><feFlood flood-opacity="0" result="BackgroundImageFix"/><feColorMatrix in="SourceAlpha" values="0 0 0 0 0 0 0 0 0 0 0 0 0 0 0 0 0 0 127 0" result="hardAlpha"/><feMorphology radius="1" in="SourceAlpha" result="effect1_dropShadow"/><feOffset dy="2"/><feGaussianBlur stdDeviation="2"/><feColorMatrix values="0 0 0 0 0 0 0 0 0 0 0 0 0 0 0 0 0 0 0.05 0"/><feBlend in2="BackgroundImageFix" result="effect1_dropShadow"/><feColorMatrix in="SourceAlpha" values="0 0 0 0 0 0 0 0 0 0 0 0 0 0 0 0 0 0 127 0" result="hardAlpha"/><feMorphology radius="1" in="SourceAlpha" result="effect2_dropShadow"/><feOffset dy="4"/><feGaussianBlur stdDeviation="3"/><feColorMatrix values="0 0 0 0 0 0 0 0 0 0 0 0 0 0 0 0 0 0 0.05 0"/><feBlend in2="effect1_dropShadow" result="effect2_dropShadow"/><feBlend in="SourceGraphic" in2="effect2_dropShadow" result="shape"/></filter></defs></svg>
